X: 8767
T: Cuckoo Clock, The
R: jig
M: 6/8
K: Dmajor
|:G/A/B|Add Fdd|efg fed|Add Fdd|Bcd gBB|
Add Fdd|edB Adf|age fdd|1 Bdc d:|2 Bdc d2||
|:e|faa gfe|fAA ded|Bdc dGG|BGG G>AB|
Add Fdd|edB Adf|age fdd|1 Bdc d2:|2 Bdc d||

